icons/bookmark-16.svg

<svg width="16" height="16" viewBox="0 0 16 16" xmlns="http://www.w3.org/2000/svg">
  <path fill-rule="evenodd" clip-rule="evenodd" d="M4.75 2.5C4.61193 2.5 4.5 2.61193 4.5 2.75V12.6608L7.52322 10.1711C7.80016 9.94298 8.19984 9.94298 8.47678 10.1711L11.5 12.6608V2.75C11.5 2.61193 11.3881 2.5 11.25 2.5H4.75ZM3 2.75C3 1.7835 3.7835 1 4.75 1H11.25C12.2165 1 13 1.7835 13 2.75V14.25C13 14.5402 12.8326 14.8044 12.5701 14.9283C12.3076 15.0521 11.9973 15.0134 11.7732 14.8289L8 11.7216L4.22678 14.8289C4.00275 15.0134 3.69238 15.0521 3.42991 14.9283C3.16744 14.8044 3 14.5402 3 14.25V2.75Z"/>
</svg>

<svg xmlns="http://www.w3.org/2000/svg" width="16" height="16" viewBox="0 0 16 16"><path fill-rule="evenodd" d="M4.75 2.5a.25.25 0 00-.25.25v9.91l3.023-2.489a.75.75 0 01.954 0l3.023 2.49V2.75a.25.25 0 00-.25-.25h-6.5zM3 2.75C3 1.784 3.784 1 4.75 1h6.5c.966 0 1.75.784 1.75 1.75v11.5a.75.75 0 01-1.227.579L8 11.722l-3.773 3.107A.75.75 0 013 14.25V2.75z"/></svg>
